!!!OTL: 328. Beim Jahresschlusse.
!!!COM: J. A. Schulz.
!!!ARE: Europa, Mitteleuropa, Deutschland
!!!SCT: B0328
!!!TXL: @@DE
!!!YEM: Copyright 1995, estate of Helmut Schaffrath.
**kern	**text
*ICvox	*
*Ivox	*
*M4/4	*
*met(c)	*
*clefG2	*
*k[b-e-a-]	*
*E-:	*
!LO:TX:a:t=Mäßig geſchwind.	!
{4B-	Des
=1	=1
4e-	Jah-
4g	-res
4b-	letʒ-
4b-	-te
=2	=2
2b-	Stun-
8a-L	-de
8gJ}	.
{8fL	er-
8e-J	.
=3	=3
4f	-tönt
4f	mit
4f	ern-
4B-	-ſtem
=4	=4
(2a-	Schlag.
4g)}	.
{4e-	Singt,
=5	=5
4g	ſingt
4b-	von
4ee-	Her-
4ee-	-ʒens
=6	=6
2ee-	Grunde
8ddL	.
8ccJ}	.
{8b-L	und
8a-J	.
=7	=7
4b-	wünſcht
8.b-L	ihm
16ccJ	.
4dd	Se-
4cc	-gen
=8	=8
(2cc	nach.
4b-)}	.
{4f	Ʒu
=9	=9
4b-	je-
4cc	-nen
4dd-	grau-
4dd-	-en
=10	=10
2dd-	Jah-
4cc}	-ren
{4b-	ent-
=11	=11
4a-	-fliegt
4g	es,
4f	wel-
4e-	-che
=12	=12
2g	wa-
4f}	-ren.
{4B-	Es
=13	=13
4e-	brach-
4g	-te
4b-	Freud'
4b-	und
=14	=14
4.ee-	Kum-
8ee-	-mer
4ee-}	viel
{4e-	und
=15	=15
4f	führt
4g	uns
4a-	nä-
4g	-her
=16	=16
2c	an
2d	das
=17	=17
2e-	Ʒiel.
4r}	.
!LO:TX:a:t=Chor.	!
{4e-	Ja,
=18	=18
4g	Freud'
4e-	und
4b-	Kum-
4g	-mer
=19	=19
2.ee-	bracht'
4ee-	es
=20	=20
2.ee-}	viel
{4e-	und
=21	=21
4f	führt
4g	uns
4a-	nä-
4g	-her
=22	=22
2cc	an
2d	das
=23	=23
2e-	Ʒiel.
4r}	.
==	==
!!!AGN: Trink - Lied, Jahreswende
!!!GTL: Wein- und Trinklieder
!!!ONB: ESAC (Essen Associative Code) Database: BOEHME
!!!AMT: simple quadruple
!!!AIN: vox
!!!EED: Helmut Schaffrath
!!!EEV: 1.0
!!@@COMMENT:"Gedicht von Joh. Voß 1784. - Melodie von J. A. Peter. Schulʒ. 1784. Ʒuerſt im "Journal
!!von und für Deutſchland" 1784; dann in "Lieder im Volkston" von Schulʒ. 2. Theil. 1785. S. 37,
!!im Mildheim Liederb. " 1799 und ſeitdem in vielen Liederbüchern gedruckt. Das ernſte Trinklied
!!ʒur Jabreswende wurde bis in die Neuʒeit von altmodiſchen Leuten in geſelligen und Familienkreiſen geſungen."
!!@@END:
!!!Text: J. H. Voß
!!!URL-scan: https://archive.org/details/BoehmeVtLieder1895/page/n273/mode/2up
!!!ENC: Anna Maria Matuszewska
!!!EEV: 2024/04/07
*-	*-
